svg/device/remote_control_fill.svg

<svg xmlns="http://www.w3.org/2000/svg" width="24" height="24" viewBox="0 0 24 24"><g fill="none"><path d="M24,0 L24,24 L0,24 L0,0 L24,0 Z M12.5935,23.2578 L12.5819,23.2595 L12.5109,23.295 L12.4919,23.2987 L12.4767,23.295 L12.4057,23.2595 C12.3958,23.2564 12.387,23.259 12.3821,23.2649 L12.378,23.2758 L12.3609,23.7031 L12.3659,23.7235 L12.3769,23.7357 L12.4805,23.8097 L12.4953,23.8136 L12.5071,23.8097 L12.6107,23.7357 L12.6233,23.7197 L12.6267,23.7031 L12.6096,23.2758 C12.6076,23.2657 12.601,23.2593 12.5935,23.2578 Z M12.8584,23.1453 L12.8445,23.1473 L12.6598,23.2397 L12.6499,23.2499 L12.6472,23.2611 L12.6651,23.6906 L12.6699,23.7034 L12.6784,23.7105 L12.8793,23.8032 C12.8914,23.8069 12.9022,23.803 12.9078,23.7952 L12.9118,23.7812 L12.8777,23.1665 C12.8753,23.1546 12.8674,23.147 12.8584,23.1453 Z M12.143,23.1473 C12.1332,23.1424 12.1222,23.1453 12.1156,23.1526 L12.1099,23.1665 L12.0758,23.7812 C12.0751,23.7927 12.0828,23.8019 12.0926,23.8046 L12.1083,23.8032 L12.3092,23.7105 L12.3186,23.7024 L12.3225,23.6906 L12.3404,23.2611 L12.3372,23.2485 L12.3278,23.2397 L12.143,23.1473 Z"/><path fill="#09244B" d="M16,2 C17.597725,2 18.903664,3.24892392 18.9949075,4.82372764 L19,5 L19,19 C19,20.597725 17.7511226,21.903664 16.1762773,21.9949075 L16,22 L8,22 C6.40232321,22 5.09633941,20.7511226 5.00509271,19.1762773 L5,19 L5,5 C5,3.40232321 6.24892392,2.09633941 7.82372764,2.00509271 L8,2 L16,2 Z M14,17 L13.5,17 C12.9477,17 12.5,17.4477 12.5,18 C12.5,18.5523 12.9477,19 13.5,19 L14,19 C14.5523,19 15,18.5523 15,18 C15,17.4477 14.5523,17 14,17 Z M10.5,17 L10,17 C9.44772,17 9,17.4477 9,18 C9,18.51285 9.38604429,18.9355092 9.88337975,18.9932725 L10,19 L10.5,19 C11.0523,19 11.5,18.5523 11.5,18 C11.5,17.48715 11.113973,17.0644908 10.6166239,17.0067275 L10.5,17 Z M14,14 L13.5,14 C12.9477,14 12.5,14.4477 12.5,15 C12.5,15.5523 12.9477,16 13.5,16 L14,16 C14.5523,16 15,15.5523 15,15 C15,14.4477 14.5523,14 14,14 Z M10.5,14 L10,14 C9.44772,14 9,14.4477 9,15 C9,15.51285 9.38604429,15.9355092 9.88337975,15.9932725 L10,16 L10.5,16 C11.0523,16 11.5,15.5523 11.5,15 C11.5,14.48715 11.113973,14.0644908 10.6166239,14.0067275 L10.5,14 Z M12,5 C10.067,5 8.5,6.567 8.5,8.5 C8.5,10.433 10.067,12 12,12 C13.933,12 15.5,10.433 15.5,8.5 C15.5,6.567 13.933,5 12,5 Z M12,7 C12.8284,7 13.5,7.67157 13.5,8.5 C13.5,9.32843 12.8284,10 12,10 C11.1716,10 10.5,9.32843 10.5,8.5 C10.5,7.67157 11.1716,7 12,7 Z"/></g></svg>

<svg xmlns="http://www.w3.org/2000/svg" width="24" height="24"><g fill="none"><path d="M24 0v24H0V0zM12.594 23.258l-.012.002-.071.035-.02.004-.014-.004-.071-.036c-.01-.003-.019 0-.024.006l-.004.01-.017.428.005.02.01.013.104.074.015.004.012-.004.104-.074.012-.016.004-.017-.017-.427c-.002-.01-.009-.017-.016-.018m.264-.113-.014.002-.184.093-.01.01-.003.011.018.43.005.012.008.008.201.092c.012.004.023 0 .029-.008l.004-.014-.034-.614c-.003-.012-.01-.02-.02-.022m-.715.002a.023.023 0 0 0-.027.006l-.006.014-.034.614c0 .012.007.02.017.024l.015-.002.201-.093.01-.008.003-.011.018-.43-.003-.012-.01-.01z"/><path fill="#09244B" d="M16 2a3 3 0 0 1 2.995 2.824L19 5v14a3 3 0 0 1-2.824 2.995L16 22H8a3 3 0 0 1-2.995-2.824L5 19V5a3 3 0 0 1 2.824-2.995L8 2zm-2 15h-.5a1 1 0 1 0 0 2h.5a1 1 0 1 0 0-2m-3.5 0H10a1 1 0 0 0-.117 1.993L10 19h.5a1 1 0 0 0 .117-1.993zm3.5-3h-.5a1 1 0 1 0 0 2h.5a1 1 0 1 0 0-2m-3.5 0H10a1 1 0 0 0-.117 1.993L10 16h.5a1 1 0 0 0 .117-1.993zM12 5a3.5 3.5 0 1 0 0 7 3.5 3.5 0 0 0 0-7m0 2a1.5 1.5 0 1 1 0 3 1.5 1.5 0 0 1 0-3"/></g></svg>
